X:1
T:Glendale Strathspey, The
C:Roddy Matthews
R:Strathspey
B:Roddy's book
M:4/4
L:1/8
K:G
G2|\
"G"{F}G>A B>A G2 D>G|"C"E<C C>G "G"D<B, B,>D|G>A B>A "Em"G2 d>B|"Am"A<D F>A "D7"c2 B>A|
"G"G>A B>A G2 D>G|"C"E<C C>G "G"D<B, B,>D|"G"(3GAB "Am"(3ABc "G"(3Bcd "D7"d>c|"G"B>G "D7"F<A "G"G2||
d2|\
"G"g>f e>d "C"(3efg "D7"d>c|"G"B>c d>c B<G G2|"A7"a>g f>e "D"(3fga "A7"a>g|"D"f>d "A7"e<^c "D"d2 "D7"(3def|
"G"g>f e>d "C"(3efg "D7"d>c|"G"B>c d>c B<G G>F|"C"(3EAc (3ecA "G"(3DGB (3dBG|"D7"A<D F>A "G"G2|]
